src/16/actions/zoom-fit-best.svg

<svg xmlns="http://www.w3.org/2000/svg" viewBox="0 0 16 16"><path d="M2 2v3h1V3h2V2H2zm6 0L6 4h4L8 2zm3 0v1h2v2h1V2h-3zM5 5v6h6V5H5zM4 6L2 8l2 2V6zm2 0h4v4H6V6zm6 0v4l2-2-2-2zM2 11v3h3v-1H3v-2H2zm11 0v2h-2v1h3v-3h-1zm-7 1l2 2 2-2H6z" fill="currentColor" color="#5d656b"/></svg>

<svg xmlns="http://www.w3.org/2000/svg" viewBox="0 0 16 16">
  <defs id="defs3051">
    <style type="text/css" id="current-color-scheme">
      .ColorScheme-Text {
        color:#5d656b;
      }
      </style>
  </defs>
 <path style="fill:currentColor;fill-opacity:1;stroke:none" 
       d="M 2 2 L 2 5 L 3 5 L 3 3 L 5 3 L 5 2 L 3 2 L 2 2 z M 8 2 L 6 4 L 10 4 L 8 2 z M 11 2 L 11 3 L 13 3 L 13 5 L 14 5 L 14 2 L 13 2 L 11 2 z M 5 5 L 5 11 L 11 11 L 11 5 L 5 5 z M 4 6 L 2 8 L 4 10 L 4 6 z M 6 6 L 10 6 L 10 10 L 6 10 L 6 6 z M 12 6 L 12 10 L 14 8 L 12 6 z M 2 11 L 2 14 L 3 14 L 5 14 L 5 13 L 3 13 L 3 11 L 2 11 z M 13 11 L 13 13 L 11 13 L 11 14 L 14 14 L 14 13 L 14 11 L 13 11 z M 6 12 L 8 14 L 10 12 L 6 12 z "
     class="ColorScheme-Text"
     />
</svg>
